assets/images/photo3.svg

<svg width="80" height="80" viewBox="0 0 80 80" fill="none" xmlns="http://www.w3.org/2000/svg">
<g clip-path="url(#clip0)">
<path d="M39.9864 16.83L20 12.1545V34.8649C20 35.5023 20.3667 36.083 20.9423 36.3569L39.2769 45.0802C39.7258 45.2938 40.2469 45.2939 40.6958 45.0805L59.0567 36.3566C59.6328 36.0828 59.9998 35.502 59.9998 34.8642V12.5108L39.9864 16.83Z" fill="#146288"/>
<path d="M40 45.2403C40.238 45.2384 40.4756 45.1858 40.6959 45.0813L59.0569 36.3574C59.633 36.0836 60 35.5028 60 34.865V12.5114L40 16.8277V45.2403Z" fill="#3896C3"/>
<path fill-rule="evenodd" clip-rule="evenodd" d="M40.3959 3.00753L59.4052 11.6071C59.777 11.7753 59.975 12.113 59.9978 12.4613C60.0238 12.8496 59.8319 13.2513 59.4203 13.4457L53.275 16.3483L40.4264 22.4172C40.1483 22.5486 39.8255 22.5464 39.5493 22.4111L20.5669 13.1164C19.7924 12.7372 19.8169 11.625 20.6072 11.2802L29.2114 7.52566L39.5743 3.00379C39.7099 2.94457 39.8552 2.91652 40 2.91953V2.91925C40.1352 2.92206 40.27 2.9505 40.3959 3.00753Z" fill="#8BC3DE"/>
<path d="M19.9864 48.6704L0 43.9951V66.7054C0 67.3429 0.366719 67.9235 0.942344 68.1974L19.2769 76.9207C19.7258 77.1343 20.2469 77.1344 20.6958 76.921L39.0567 68.1971C39.6328 67.9233 39.9998 67.3426 39.9998 66.7047V44.3511L19.9864 48.6704Z" fill="#146288"/>
<path d="M20 77.0809C20.238 77.079 20.4756 77.0263 20.6959 76.9218L39.0569 68.1979C39.633 67.9241 40 67.3434 40 66.7055V44.1987L20 48.6682V77.0809Z" fill="#3896C3"/>
<path fill-rule="evenodd" clip-rule="evenodd" d="M39.4203 45.286L33.275 48.1886L20.4264 54.2574C20.1483 54.3888 19.8255 54.3866 19.5493 54.2513L0.566912 44.9566C-0.207619 44.5774 -0.183088 43.4652 0.607225 43.1204L9.21144 39.366L19.5743 34.8441C19.7099 34.7849 19.8552 34.7568 20 34.7599V34.7597C20.1352 34.7626 20.27 34.791 20.3959 34.848L39.4052 43.223C39.8412 43.4202 40.0382 43.8506 39.9939 44.2576C40.038 44.6593 39.8474 45.0842 39.4203 45.286Z" fill="#8BC3DE"/>
<path d="M59.9864 48.6704L40 44.1987V66.7054C40 67.3429 40.3667 67.9235 40.9423 68.1974L59.2769 76.9207C59.7258 77.1343 60.2469 77.1345 60.6958 76.921L79.0567 68.1971C79.6328 67.9234 79.9998 67.3426 79.9998 66.7048V44.3512L59.9864 48.6704Z" fill="#146288"/>
<path d="M60 77.0808C60.238 77.079 60.4756 77.0263 60.6959 76.9218L79.0569 68.1979C79.633 67.9241 80 67.3433 80 66.7055V44.3519L60 48.6682V77.0808Z" fill="#3896C3"/>
<path fill-rule="evenodd" clip-rule="evenodd" d="M79.4204 45.286L73.275 48.1886L60.4264 54.2574C60.1483 54.3888 59.8255 54.3866 59.5493 54.2513L40.5669 45.1144C39.7924 44.7352 39.8169 43.623 40.6072 43.2782L49.2114 39.366L59.5743 34.8441C59.7099 34.7849 59.8552 34.7568 60 34.7599V34.7597C60.1352 34.7626 60.27 34.791 60.3959 34.848L79.4052 43.4474C79.7723 43.6135 79.97 43.9449 79.9968 44.2885C80.0281 44.6809 79.8365 45.0894 79.4204 45.286Z" fill="#8BC3DE"/>
</g>
<defs>
<clipPath id="clip0">
<rect width="80" height="80" fill="white"/>
</clipPath>
</defs>
</svg>

<svg width="80" height="80" fill="none" xmlns="http://www.w3.org/2000/svg"><g clip-path="url(#clip0)"><path d="M39.986 16.83L20 12.155v22.71c0 .637.367 1.218.942 1.492l18.335 8.723c.449.214.97.214 1.419 0l18.36-8.723c.577-.274.944-.855.944-1.493V12.511L39.986 16.83z" fill="#146288"/><path d="M40 45.24c.238-.002.476-.054.696-.159l18.36-8.724A1.65 1.65 0 0060 34.865V12.511l-20 4.317V45.24z" fill="#3896C3"/><path fill-rule="evenodd" clip-rule="evenodd" d="M40.396 3.008l19.01 8.6a.996.996 0 01.592.853c.026.389-.166.79-.578.985l-6.145 2.902-12.849 6.07c-.278.13-.6.128-.877-.007l-18.982-9.295a1.012 1.012 0 01.04-1.836l8.604-3.754 10.363-4.522a1.008 1.008 0 01.822.004z" fill="#8BC3DE"/><path d="M19.986 48.67L0 43.995v22.71c0 .638.367 1.219.942 1.492l18.335 8.724c.449.213.97.213 1.419 0l18.36-8.724c.577-.274.944-.854.944-1.492V44.35l-20.014 4.32z" fill="#146288"/><path d="M20 77.08c.238-.001.476-.054.696-.158l18.36-8.724c.577-.274.944-.855.944-1.492V44.198l-20 4.47V77.08z" fill="#3896C3"/><path fill-rule="evenodd" clip-rule="evenodd" d="M39.42 45.286l-6.145 2.903-12.849 6.068c-.278.132-.6.13-.877-.006L.567 44.957a1.012 1.012 0 01.04-1.837l8.604-3.754 10.363-4.522a1.01 1.01 0 01.822.004l19.01 8.375c.435.197.632.628.588 1.035.044.401-.147.826-.574 1.028z" fill="#8BC3DE"/><path d="M59.986 48.67L40 44.2v22.506c0 .638.367 1.219.942 1.492l18.335 8.724c.449.213.97.213 1.419 0l18.36-8.724c.577-.274.944-.854.944-1.492V44.35l-20.014 4.32z" fill="#146288"/><path d="M60 77.08c.238-.001.476-.054.696-.158l18.36-8.724c.577-.274.944-.855.944-1.492V44.352l-20 4.316v28.413z" fill="#3896C3"/><path fill-rule="evenodd" clip-rule="evenodd" d="M79.42 45.286l-6.145 2.903-12.849 6.068c-.278.132-.6.13-.877-.006l-18.982-9.137a1.012 1.012 0 01.04-1.836l8.604-3.912 10.363-4.522a1.01 1.01 0 01.822.004l19.01 8.6a.997.997 0 01.59.84 1 1 0 01-.576.998z" fill="#8BC3DE"/></g><defs><clipPath id="clip0"><path fill="#fff" d="M0 0h80v80H0z"/></clipPath></defs></svg>
